X:1
T: The Doune of Invernoughty
C:Alexander Walker
R:Reel
Q: 232
K:Em
M:4/4
L:1/8
|:Be e2 ge fd|eB dB AF DF|Be e2 ge fd|BG AF E2 E2|
Be e2 ge fd|eB dB AF DF|Be e2 ge fd|BG AF E2 Ee|
BE GE BE GB|de fe dD Fc|BE GE eg fe|dB AF E2 Ec|
BE GE BE GB|de fe dD Fd|eg fa gb ef|dB AF E2 E:|
